X:1
T:Title
L:1/8
Q:1/4=65
M:6/8
K:Eb
V:1 treble nm="Church Organ, Staff"
V:1
 CE>D C G2 | cB>A G e2 | E F2 GA>B | A G2- G G2 | CE>D C G2 | cB>A G e2 | E F2 GA>B | A G2- G G2 | %8
w: By~18th~Century~(Durfey's~Verses,~1719) * * * *||||||||
 cB>G E B2 | cA>G F A2 | BG>F E D2 | C/C/ e2- e/ z/ z d | cB>G E d2 | eA>G F A2 | BG>F ED>C | %15
w: |||||||
 D C2- C C2 |] %16
w: |

